X: 21362
Q: "Tenderly"
M: 9/8
L: 1/8
K: Am
E |\
{d}c>Bc dcB cBA | ^GAB B2A ^G^FE | cBc {e}dcd e2e |\
EAA A2B cBA :||: G2g g>ag {a}gfe | d2c BcA ^G2E |
d2c BcA ^G^FE | c>Bc {e}d>cd e2e | E<AA A2B {d}cBA :|



